ui/StatusQ/src/assets/img/icons/tiny/gas.svg

<svg fill="none" height="18" viewBox="0 0 17 18" width="17" xmlns="http://www.w3.org/2000/svg"><path clip-rule="evenodd" d="m3.75.00390625c-2.07107 0-3.75 1.67893375-3.75 3.75000375v11.99999c0 .9665.783502 1.75 1.75 1.75h6c.9665 0 1.75-.7835 1.75-1.75v-5.75h.25c.6904 0 1.25.5596 1.25 1.25v3.5c0 1.5188 1.2312 2.75 2.75 2.75s2.75-1.2312 2.75-2.75v-8.63869c0-1.08136-.4668-2.11008-1.2806-2.82216l-2.9755-2.603576c-.3117-.272762-.7856-.241174-1.0583.070554-.2728.311732-.2412.785552.0705 1.058312l1.4879 1.3019c-1.0112.32041-1.744 1.26646-1.744 2.38367 0 1.38071 1.1193 2.5 2.5 2.5.5628 0 1.0822-.18598 1.5-.49982v7.24981c0 .6904-.5596 1.25-1.25 1.25s-1.25-.5596-1.25-1.25v-3.5c0-1.51878-1.2312-2.74999-2.75-2.74999h-.25v-4.75c0-2.07107-1.67893-3.75000375-3.75-3.75000375zm-2.25 3.75000375c0-1.24264 1.00736-2.25 2.25-2.25h2c1.24264 0 2.25 1.00736 2.25 2.25v2.5h-6.5zm0 4v7.99999c0 .1381.11193.25.25.25h6c.13807 0 .25-.1119.25-.25v-7.99999zm12-3.25c-.5523 0-1 .44771-1 1 0 .55228.4477 1 1 1s1-.44772 1-1c0-.55229-.4477-1-1-1z" fill="#000" fill-rule="evenodd"/></svg>

<svg width="17" height="18" viewBox="0 0 17 18" fill="none" xmlns="http://www.w3.org/2000/svg">
<path fill-rule="evenodd" clip-rule="evenodd" d="M3.75 0.00390625C1.67893 0.00390625 0 1.68284 0 3.75391V15.7539C0 16.7204 0.783502 17.5039 1.75 17.5039H7.75C8.7165 17.5039 9.5 16.7204 9.5 15.7539V10.0039H9.75C10.4404 10.0039 11 10.5635 11 11.2539V14.7539C11 16.2727 12.2312 17.5039 13.75 17.5039C15.2688 17.5039 16.5 16.2727 16.5 14.7539V6.11521C16.5 5.03385 16.0332 4.00513 15.2194 3.29305L12.2439 0.689474C11.9322 0.416712 11.4583 0.4483 11.1856 0.760028C10.9128 1.07176 10.9444 1.54558 11.2561 1.81834L12.744 3.12024C11.7328 3.44065 11 4.3867 11 5.50391C11 6.88462 12.1193 8.00391 13.5 8.00391C14.0628 8.00391 14.5822 7.81793 15 7.50409V14.7539C15 15.4443 14.4404 16.0039 13.75 16.0039C13.0596 16.0039 12.5 15.4443 12.5 14.7539V11.2539C12.5 9.73512 11.2688 8.50391 9.75 8.50391H9.5V3.75391C9.5 1.68284 7.82107 0.00390625 5.75 0.00390625H3.75ZM1.5 3.75391C1.5 2.51127 2.50736 1.50391 3.75 1.50391H5.75C6.99264 1.50391 8 2.51127 8 3.75391V6.25391L1.5 6.25391V3.75391ZM1.5 7.75391V15.7539C1.5 15.892 1.61193 16.0039 1.75 16.0039H7.75C7.88807 16.0039 8 15.892 8 15.7539V7.75391L1.5 7.75391ZM13.5 4.50391C12.9477 4.50391 12.5 4.95162 12.5 5.50391C12.5 6.05619 12.9477 6.50391 13.5 6.50391C14.0523 6.50391 14.5 6.05619 14.5 5.50391C14.5 4.95162 14.0523 4.50391 13.5 4.50391Z" fill="black"/>
</svg>
